public/style/workarea/images/icons/exe-page-icon.svg

<svg fill="none" height="24" viewBox="0 0 25 24" width="25" xmlns="http://www.w3.org/2000/svg"><g stroke="#9da2ac" stroke-linecap="round" stroke-linejoin="round" stroke-width="1.5"><path d="m14.3188 2h-7.99995c-.53044 0-1.03914.21071-1.41422.58579-.37507.37507-.58578.88378-.58578 1.41421v16c0 .5304.21071 1.0391.58578 1.4142.37508.3751.88378.5858 1.41422.5858h11.99995c.5305 0 1.0392-.2107 1.4143-.5858.375-.3751.5857-.8838.5857-1.4142v-12z"/><path d="m16.3188 17h-7.99995"/><path d="m16.3188 13h-7.99995"/><path d="m10.3188 9h-.99995-1"/><path d="m14.3188 2v6h6"/></g></svg>

<svg width="25" height="24" viewBox="0 0 25 24" fill="none" xmlns="http://www.w3.org/2000/svg">
<path d="M14.3188 2H6.31885C5.78841 2 5.27971 2.21071 4.90463 2.58579C4.52956 2.96086 4.31885 3.46957 4.31885 4V20C4.31885 20.5304 4.52956 21.0391 4.90463 21.4142C5.27971 21.7893 5.78841 22 6.31885 22H18.3188C18.8493 22 19.358 21.7893 19.7331 21.4142C20.1081 21.0391 20.3188 20.5304 20.3188 20V8L14.3188 2Z" stroke="#9DA2AC" stroke-width="1.5" stroke-linecap="round" stroke-linejoin="round"/>
<path d="M16.3188 17H8.31885" stroke="#9DA2AC" stroke-width="1.5" stroke-linecap="round" stroke-linejoin="round"/>
<path d="M16.3188 13H8.31885" stroke="#9DA2AC" stroke-width="1.5" stroke-linecap="round" stroke-linejoin="round"/>
<path d="M10.3188 9H9.31885H8.31885" stroke="#9DA2AC" stroke-width="1.5" stroke-linecap="round" stroke-linejoin="round"/>
<path d="M14.3188 2V8H20.3188" stroke="#9DA2AC" stroke-width="1.5" stroke-linecap="round" stroke-linejoin="round"/>
</svg>
